X:1
T:Moreen
N:Stanford-Petrie #1067
N:from O'Neill's MS, 1787
S: Chris Partington <ChrisTheFiddlerPartington:Hotmail.com> 2009-3-23
M:2/4
L:1/4
Z:transcribed by Bruce Olsen
K:F
C/ \
| F/F/4G/4 B/4A/4G/4F/4 | A/c/ f/e/4d/4 | d/4c/4B/4A/4 G/F/ | E/4F/4G/4E/4 C3/4E/4 |
| F/4C/4F/4G/4 B/4A/4G/4F/4 | F/4A/4c/4e/4 f/e3/4d/4 | d/4c/4B/4A/4 c/4B/4A/4B/4 | G3/4A/4 F3/4 ||
c/ \
| c/c/4d/4 f/4e/4d/4c/4 | d/4f/4e/4g/4 f/d/ | d/4c/4B/4A/4 G/F/ | E/4F/4G/4E/4 C3/4E/4 |
| F/F/4G/4 B/4A/4G/4F/4 | F/4A/4c/4d/8e/8 f/e/4d/4 | d/4c/4B/4A/4 c/4B/4A/4B/4 | G3/4A/4F |]
